X:1
T:Death's Gwinter Lay His Cold Icy Hands
M:4/4
L:1/4
K:G
 D| G/2 G3/2 A/2 A3/2| B B/2B/2 A2| G G/2G/2 A A| B G2| B| A3 B| G3 D/2D/2|\
 G/2G/2 G A A/2A/2| B B| A2| G G/2G/2 A A| B G2 B| A3 B| G4| G/2G/2 G A A|\
 B B A2| G G/2G/2 A A| B G2| B| A3 B| G3 D| G/2G/2 G A A| B B| A2|\
 G G/2G/2 A A| B G2 B| A3 B| G2| B c| d3-e/2-B/2| d2 B c| d2 B2| A2|\
 =f e| d3-e/2-B/2| d2- B2| G G/2G/2 A A| B G2 B| A3 B| G3 D| G G A A|\
 B B A2| F G/2G/2 A A| B G2 B| A3 B| G3 D| G/2G/2 G/2G/2 A A| B B A2|\
 G G/2G/2 A A| B G2 B| A3 B| G2 B c| d3-e/2-B/2| d2 B c| d2 B2| A2 =f e|\
 d3-e/2-B/2| d2- B2| G G/2G/2 A A| B G2 B| A3 B| G4-| G2 G2| G3||
